format-text-rotation-down-vertical.svg

<svg  viewBox="0 0 24 24" fill="currentColor"><path  d="M15.25 4H13.75L9 15H11.1L12 12.8H17L17.9 15H20L15.25 4M12.63 11L14.5 6L16.37 11H12.63M5 17.5L8 14.5H6V2H4V14.5H2L5 17.5M22 20L19 17V19H6.5V21H19V23L22 20Z"/></svg>

<svg fill="currentColor" viewBox="0 0 24 24"><path d="M15.25 4h-1.5L9 15h2.1l.9-2.2h5l.9 2.2H20zm-2.62 7 1.87-5 1.87 5zM5 17.5l3-3H6V2H4v12.5H2zM22 20l-3-3v2H6.5v2H19v2z"/></svg>
